!!!!SEGMENT: Tin/Tin2004-O_virgo_miserere_mei.krn
!!!COM: Tinctoris, Johannes
!!!CDT: ~1435///-1511//
!!!OTL: O virgo miserere mei
!!!AGN: Motet
!!!SCT: Tin2004
!!!SCA: Tin2004
!!!jrpid: Tin2004
!!!voices: 3
**kern	**cdata-rdiss	**kern	**cdata-rdiss	**kern	**cdata-rdiss
*staff3	*	*staff2	*	*staff1	*
*Ivox	*	*Ivox	*	*Ivox	*
*I"Contra	*	*I"Tenor	*	*I"Superius	*
*I'C	*	*I'T	*	*I'S	*
*clefF4	*	*clefGv2	*	*clefG2	*
*k[]	*	*k[]	*	*k[]	*
*M2/1	*	*M2/1	*	*M2/1	*
*met(C|)	*	*met(C|)	*	*met(C|)	*
=1-	=1-	=1-	=1-	=1-	=1-
1.A	.	0A	.	0a	.
4G\@	q	.	.	.	.
4F\	.	.	.	.	.
=2	=2	=2	=2	=2	=2
4G\	.	1B	.	1.g	.
4F\+	p	.	.	.	.
4E\	.	.	.	.	.
4D\+	p	.	.	.	.
1C	.	1c	.	.	.
.	.	.	.	4f/@	q
.	.	.	.	4e/	.
=3	=3	=3	=3	=3	=3
1D	.	2A/	.	1f	.
.	.	1dN	.	.	.
1AA	g	.	s	1e	g
.	.	2c#i\	.	.	.
=4	=4	=4	=4	=4	=4
1D	.	1d	.	2r	.
.	.	.	.	2.d/	.
1D	.	2r	.	.	.
.	.	.	.	4c/+	p
.	.	2d\	.	2B/	.
=5	=5	=5	=5	=5	=5
2AA/	.	1e	.	2A/	.
2.A\	.	.	.	2.c/	.
.	.	1A	.	.	.
4B\+	P	.	.	4d/+	P
2c\	.	.	.	[2e/	.
=6	=6	=6	=6	=6	=6
2B\	.	2G/	.	2e/]	.
4A\	.	4F/	.	4d/	.
4G\	.	4E/	.	4c/	.
1A	.	1F	.	1d	.
=7	=7	=7	=7	=7	=7
2G\	.	2r	.	1e	.
2.G\	.	2.E/	.	.	.
.	.	.	.	2r	.
4F\	.	4F/	.	.	.
2E\	.	2G/	.	2e/	.
=8	=8	=8	=8	=8	=8
1D	.	2A/	.	2.f/	.
.	.	1D	.	.	.
.	.	.	.	4g/+	P
2r	.	.	.	2a/	.
[2D\	.	[2f\	.	[2a/	.
=9	=9	=9	=9	=9	=9
4D\]	.	4f\]	.	4a/]	.
4E\	.	4e\	.	4g/	.
4F\	.	2d\	.	2f/	.
4G\+	P	.	.	.	.
1A	.	2.c#i\	.	2.e/	.
.	.	4B\+	e	4d/+	a
=10	=10	=10	=10	=10	=10
2.D\	.	2.d\	.	2d/	.
.	.	.	.	2.f/	.
4E\+	P	4c\+	k	.	.
2.F\	.	2.A/	.	.	.
.	.	.	.	4g/+	P
.	.	.	.	[2a/	.
4G\+	P	4B\+	P	.	.
=11	=11	=11	=11	=11	=11
2A\	.	2c\	.	4a/]	.
.	.	.	.	4g/+	e
2G\	.	2d\	.	2.b-\	.
1d	.	2.G/	.	.	.
.	.	.	.	4a/+	p
.	.	.	.	[2g/	.
.	.	4A/+	P	.	.
=12	=12	=12	=12	=12	=12
1G	.	2B-i\	.	2g/]	.
.	.	4A/@	q	4f#i/@	q
.	.	4G/	.	4e/	.
1D	.	1A	.	1f#i	.
=13	=13	=13	=13	=13	=13
2G\	.	2r	.	1g	.
2.C/	.	2.G/	.	.	.
.	.	.	.	2r	.
4D\	.	4F/	.	.	.
2E\	.	2E/	.	2g/	.
=14	=14	=14	=14	=14	=14
2.F\	.	2D/	.	2.a/	.
.	.	2.F/	.	.	.
4G\+	P	.	.	4b\+	P
1A	.	.	.	2cc\	.
.	.	4E/+	n	.	.
.	.	4F/	.	[2a/	.
.	.	4G/+	P	.	.
=15	=15	=15	=15	=15	=15
2.D\	.	1.A	.	4a/]	.
.	.	.	.	4g/+	p
.	.	.	.	2f/	.
4C/+	c	.	.	.	.
1AA	.	.	.	1e	.
.	.	[2c\	.	.	.
=16	=16	=16	=16	=16	=16
0r	.	2c\]	.	3%2AV	.
.	.	2.A/	.	.	.
.	.	.	.	3%2.c	.
.	.	4G/+	p	.	.
.	.	2F/	.	.	.
.	.	.	.	3d/Z	.
=17	=17	=17	=17	=17	=17
3%2CV	.	3%2GV	.	3%2eV	.
3%2.BB-	.	3%2.D	.	3%2.f	.
3C/Z	.	3E/Z	.	3e/Z	.
=18	=18	=18	=18	=18	=18
3%2DV	.	3%2FV	.	3%2.dV	.
3%2BB-i	.	3%2G	.	.	.
.	.	.	.	3B-i/	.
3%2AAZ	.	3%2AZ	.	3%2cZ	.
=19	=19	=19	=19	=19	=19
0GG	.	0B-i	.	1d	.
.	.	.	.	[1g	.
=20	=20	=20	=20	=20	=20
1C	.	0c	.	2g/]	.
.	.	.	.	4f/@	b
.	.	.	.	4g/	.
1F	.	.	.	[1a	.
=21	=21	=21	=21	=21	=21
0D	.	0d	.	2a/]	.
.	.	.	.	4g/@	b
.	.	.	.	4a/	.
.	.	.	.	4b-i\	.
.	.	.	.	4a/	.
.	.	.	.	4g/@	v
.	.	.	.	4f/	.
=22	=22	=22	=22	=22	=22
2AA/	.	1.c	.	1.e	.
1A	.	.	.	.	.
2B\	.	2d\	.	2f/	.
=23	=23	=23	=23	=23	=23
1c	.	1e	.	2g/	.
.	.	.	.	4a/	.
.	.	.	.	4b\+	P
2F\	.	2A/	.	2cc\	.
[2G\	.	[2d\	.	[2b\	.
=24	=24	=24	=24	=24	=24
4G\]	.	4d\]	.	4b\]	.
4A\	.	4c\	.	4e/	.
2F\	.	2A/	.	1aN	.
1E	g	1B	g	.	s
.	.	.	.	2g#i/	.
=25	=25	=25	=25	=25	=25
1AA	.	2r	.	0a	.
.	.	1A	.	.	.
1D	.	.	.	.	.
.	.	2F/	.	.	.
=26	=26	=26	=26	=26	=26
2E\	.	2G/	.	1.g	.
1C	.	1E	.	.	.
2D\	.	2D/	.	[2f/	.
=27	=27	=27	=27	=27	=27
2BB-/	.	2d\	.	2f/]	.
2GG/	.	2B\	.	2g/	.
1AA	.	1c	.	1e	.
=28	=28	=28	=28	=28	=28
1r	.	2d\	.	1d	.
.	.	2.B\	.	.	.
[1GG	.	.	.	1r	.
.	.	4A/+	p	.	.
.	.	[2G/	.	.	.
=29	=29	=29	=29	=29	=29
2GG/]	.	4G/]	.	1.d	.
.	.	4F/+	n	.	.
1GG	.	1G	.	.	.
[2AA/	.	[2E/	.	[2c/	.
=30	=30	=30	=30	=30	=30
2AA/]	.	2E/]	.	2c/]	.
2D\	.	2F/	.	2d/	.
1GG	.	1G	.	1B	.
=31	=31	=31	=31	=31	=31
1r	.	2A/	.	1.A	.
.	.	2.c\	.	.	.
[1F	.	.	.	.	.
.	.	4B\+	p	.	.
.	.	[2A/	.	[2c/	.
=32	=32	=32	=32	=32	=32
2F\]	.	4A/]	.	2c/]	.
.	.	4G/+	p	.	.
2D\	.	2F/	.	2d/	.
2.C/	.	2.E/	.	[1e	.
4D\+	P	4F/+	P	.	.
=33	=33	=33	=33	=33	=33
2E\	.	2G/	.	2e/]	.
1D	.	2A/	.	1f	.
.	.	2F/	.	.	.
[2C/	.	[2G/	.	2e/	.
=34	=34	=34	=34	=34	=34
2C/]	.	4G/]	.	1.g	.
.	.	4A/+	P	.	.
1G	.	1B	.	.	.
2C/@	.	2c\@	.	4f/@	w
.	.	.	.	4g/	.
=35	=35	=35	=35	=35	=35
1.F	.	2A/	.	1.a	.
.	.	1c	.	.	.
2G\	.	4B\	.	4g/	.
.	.	4A/+	n	4f/+	n
=36	=36	=36	=36	=36	=36
1E	.	4B\	.	4g/	.
.	.	4A/+	p	4f/+	p
.	.	4G/	.	4e/	.
.	.	4F/+	p	4d/+	p
1AA	.	1E	.	2.c#i/	.
.	.	.	.	4B/+	e
=37	=37	=37	=37	=37	=37
2D\	.	2r	.	1.d	.
2.F\	.	2D/	.	.	.
.	.	2.F/	.	.	.
4G\+	P	.	.	.	.
4A\	.	.	.	[2f/	.
4B\	.	4G/+	P	.	.
=38	=38	=38	=38	=38	=38
2A\	.	2A/	.	2f/]	.
2G\	.	2B-\	.	2g/	.
[1F	.	2A/	.	[1a	.
.	.	[2c\	.	.	.
=39	=39	=39	=39	=39	=39
2F\]	.	4c\]	.	2a/]	.
.	.	4B\+	n	.	.
4E\	.	4c\	.	4g/	.
4D\	.	4d\	.	4f/	.
2C/	.	1e	.	1g	.
[2E\	.	.	.	.	.
=40	=40	=40	=40	=40	=40
4E\]	.	2.E/	.	4g/	.
4F\+	P	.	.	4f/+	p
1.G	.	.	.	4e/	.
.	.	4F/+	P	4d/	.
.	.	2G/	.	1e	.
.	.	4A/@	Q	.	.
.	.	4B\	.	.	.
=41	=41	=41	=41	=41	=41
2F\	.	2c\	.	1.A	.
2.D\	.	1F	.	.	.
4C/+	p	.	.	.	.
2BB/	.	2G/	.	2B/	.
=42	=42	=42	=42	=42	=42
2AA/	.	2A/	.	2c/	.
2D\	.	2F/	.	1dN	.
1AA	g	1E	g	.	s
.	.	.	.	2c#i/	.
=43	=43	=43	=43	=43	=43
1r	.	2D/	.	1d	.
.	.	1d	.	.	.
1D	.	.	.	2r	.
.	.	2B\	.	2d/	.
=44	=44	=44	=44	=44	=44
1C	.	1c	.	4e/	.
.	.	.	.	4f/+	P
.	.	.	.	4g/	.
.	.	.	.	4a/	.
2BB/	.	2d\	.	2b\	.
[2AA/	.	[2e\	.	[2cc\	.
=45	=45	=45	=45	=45	=45
1AA]	.	4e\]	.	4cc\]	.
.	.	4d\+	p	4b\+	p
.	.	2c\	.	1aN	.
1E	g	1B	g	.	s
.	.	.	.	2g#i/	.
=46	=46	=46	=46	=46	=46
0AAl	.	0Al	.	0al	.
==	==	==	==	==	==
*-	*-	*-	*-	*-	*-
!!!RDF**kern: l=long note in original notation
!!!RDF**kern: i=editorial accidental
!!!RDF**kern: V=start of tuplet marker
!!!RDF**kern: Z=end of tuplet marker
!!!ENC: Chris Gage 01-29-2015
!!!END: 2015/02/21/
!!!EED: Jesse Rodin
!!!EEV: 2015/03/21/
!!!ONB: Translated from MusicXML and edited on 2015/03/21/ by Craig Sapp
!!muse2ps: C^@{COM}^i2I150v95,95,150Q16
!!!Xfilter: dissonant --color
!!!RDF**kern: N = strong dissonant marked note, color="#bb3300"
!!!RDF**kern: @ = weak 1 dissonant marked note, color="#33bb00"
!!!RDF**kern: + = weak 2 dissonant marked note, color="#0099ff"